X:57
T:Slip In the Back Way
M:4/4
L:1/16
R:Hornpipe
C:Gris Sanderson
Q:700
N:This title refers to the ease with which it is possible to get to
N:see well-known performers when one has a friend with a
N:backstage pass.
K:Edor
d4||e3d B3A B3B- B3d|e3d B3A B3d A3B|A3G E3D G3E E3G|
D3E G3A B3A B3d|e3d B3A B3B- B3d|e3d B3A B3d A3B|
|1A3G E3D A3G E3D|G3E- E3G B3A B3d:|
|2d3A B3d A3B d3D- |D3E G3A B3A B3d||
|:e3a- a3e g3e a3g|e3d B3A B3e A3B|
e3a- a3e g3e a3g|e3d B3G A4A4|
|1e3a- a3e g4 g3e|(3a2b2a2 g3e d3B e3d|
B4 B3A G4 G3E|D3E G3A B3A B3d:|
|2e3a- a3e b4 b3e|(3a2b2a2 g3e d3B e3d|
B4 B3A G4 G3E|D3E G3B A4 A3G||
|:E4 E3D E3G D3E|G3D E3G D3E G3A|
G3E D3B, A,3A,- A,3B,-|B,3A, B,3D E3G F3D|E4 E3D E3G D3E|
|1G3D E3G D3E G3A|G3E D3B, G,3G,- G,3G,-|G,3G, A,3B, D3A, B,3D:|
|2G3D E3G A3B d3e|g3e g3a b4 b3a|g3e d3B B3A B3d||
